X: 2148
T: ATHOLE BROSE
C:
Q: "Reel."
R: Reel.
%R: reel
B: James Kerr "Merry Melodies" v.2 p.17 #148
Z: 2016 John Chambers <jc:trillian.mit.edu>
M: C
L: 1/8
K: D
uA |:\
FD D/D/D (A,D)DA | FD D/D/D (G/A/B) AG |\
FD D/D/D (A,D)D=F | E/=F/G (=CE) =cGEC ::\
Ddd=c dedc | Adde =fde^c |\
Add=c dedB | =cdcG E=CGE :|

%%sep 1 1 500
%%sep 1 1 500

